svg/device/homepod_mini_fill.svg

<?xml version="1.0" encoding="UTF-8"?>
<svg width="24px" height="24px" viewBox="0 0 24 24" version="1.1" xmlns="http://www.w3.org/2000/svg" xmlns:xlink="http://www.w3.org/1999/xlink">
    <title>homepod_mini_fill</title>
    <g id="Icon" stroke="none" stroke-width="1" fill="none" fill-rule="evenodd">
        <g id="Device" transform="translate(-768.000000, -432.000000)">
            <g id="homepod_mini_fill" transform="translate(768.000000, 432.000000)">
                <path d="M24,0 L24,24 L0,24 L0,0 L24,0 Z M12.5935,23.2578 L12.5819,23.2595 L12.5109,23.295 L12.4919,23.2987 L12.4767,23.295 L12.4057,23.2595 C12.3958,23.2564 12.387,23.259 12.3821,23.2649 L12.378,23.2758 L12.3609,23.7031 L12.3659,23.7235 L12.3769,23.7357 L12.4805,23.8097 L12.4953,23.8136 L12.5071,23.8097 L12.6107,23.7357 L12.6233,23.7197 L12.6267,23.7031 L12.6096,23.2758 C12.6076,23.2657 12.601,23.2593 12.5935,23.2578 Z M12.8584,23.1453 L12.8445,23.1473 L12.6598,23.2397 L12.6499,23.2499 L12.6472,23.2611 L12.6651,23.6906 L12.6699,23.7034 L12.6784,23.7105 L12.8793,23.8032 C12.8914,23.8069 12.9022,23.803 12.9078,23.7952 L12.9118,23.7812 L12.8777,23.1665 C12.8753,23.1546 12.8674,23.147 12.8584,23.1453 Z M12.143,23.1473 C12.1332,23.1424 12.1222,23.1453 12.1156,23.1526 L12.1099,23.1665 L12.0758,23.7812 C12.0751,23.7927 12.0828,23.8019 12.0926,23.8046 L12.1083,23.8032 L12.3092,23.7105 L12.3186,23.7024 L12.3225,23.6906 L12.3404,23.2611 L12.3372,23.2485 L12.3278,23.2397 L12.143,23.1473 Z" id="MingCute" fill-rule="nonzero"></path>
                <path d="M7.7728,5.54027 C7.27845,5.69475 6.93751,5.8586 6.73328,6 C6.93751,6.1414 7.27845,6.30525 7.7728,6.45973 C8.81033,6.78396 10.3051,7 12,7 C13.6949,7 15.1897,6.78396 16.2272,6.45973 C16.7216,6.30525 17.0625,6.1414 17.2667,6 C17.0625,5.8586 16.7216,5.69475 16.2272,5.54027 C15.1897,5.21604 13.6949,5 12,5 C10.3051,5 8.81033,5.21604 7.7728,5.54027 Z M12,3 C10.1603,3 8.45506,3.23168 7.17625,3.63131 C6.5428,3.82926 5.95742,4.0857 5.50871,4.41722 C5.48588,4.43409 5.33309,4.54649 5.33309,4.54649 C3.28885,6.37613 2,9.03818 2,11.9999 C2,17.5228 6.47715,21.9999 12,21.9999 C17.5228,21.9999 22,17.5228 22,11.9999 C22,9.04466 20.7168,6.38774 18.6803,4.55848 C18.6803,4.55848 18.515,4.43476 18.4913,4.41722 C18.0426,4.0857 17.4572,3.82926 16.8238,3.63131 C15.545,3.23168 13.8397,3 12,3 Z" id="形状" fill="#09244B"></path>
            </g>
        </g>
    </g>
</svg>

<svg xmlns="http://www.w3.org/2000/svg" width="24" height="24"><g fill="none" fill-rule="evenodd"><path d="M24 0v24H0V0h24ZM12.594 23.258l-.012.002-.071.035-.02.004-.014-.004-.071-.036c-.01-.003-.019 0-.024.006l-.004.01-.017.428.005.02.01.013.104.074.015.004.012-.004.104-.074.012-.016.004-.017-.017-.427c-.002-.01-.009-.017-.016-.018Zm.264-.113-.014.002-.184.093-.01.01-.003.011.018.43.005.012.008.008.201.092c.012.004.023 0 .029-.008l.004-.014-.034-.614c-.003-.012-.01-.02-.02-.022Zm-.715.002a.023.023 0 0 0-.027.006l-.006.014-.034.614c0 .012.007.02.017.024l.015-.002.201-.093.01-.008.003-.011.018-.43-.003-.012-.01-.01-.184-.092Z"/><path fill="#09244B" d="M7.773 5.54c-.495.155-.835.319-1.04.46.205.141.545.305 1.04.46C8.81 6.784 10.305 7 12 7c1.695 0 3.19-.216 4.227-.54.495-.155.835-.319 1.04-.46-.204-.141-.545-.305-1.04-.46C15.19 5.216 13.695 5 12 5c-1.695 0-3.19.216-4.227.54ZM12 3c-1.84 0-3.545.232-4.824.631-.633.198-1.219.455-1.667.786l-.176.13A9.978 9.978 0 0 0 2 12c0 5.523 4.477 10 10 10s10-4.477 10-10a9.977 9.977 0 0 0-3.32-7.442l-.189-.14c-.448-.332-1.034-.589-1.667-.787C15.545 3.231 13.84 3 12 3Z"/></g></svg>
